X: 1
T: Mountain
R: hornpipe
M: 4/4
L: 1/8
K: Gmaj
dc|"G"B2GB "D"ADFA|"G"GABd g2fg|"D"a2fa "G"gaba|"G"gd "Am"cA "D7"dBcA|
"G"B2GB "D"ADFA|"G"GABd g2fg|"D"adfa "G"gd "Am"cA|"G"Bd "D7"cA "G"G2:|
Bc|"G"dgba gdBG|"Am7"AGAc E2AG|"D"FDFA d2^cd|"Em"ed^cd "G"B2Bc|
"G"dgba gdBG|"Am7"AGAc e2ag|"D"fgag "D7"fdcA|"G"G2 "D"FA "G"G2:|

